src/16/actions/zoom-2-to-1.svg

<svg xmlns="http://www.w3.org/2000/svg" viewBox="0 0 16 16"><path d="M2 2v3h1V3h2V2H2zm9 0v1h2v2h1V2h-3zM4 4v8h3V4H4zm4 2v4l2-2-2-2zm3 0v4h2V6h-2zm-9 5v3h3v-1H3v-2H2zm11 0v2h-2v1h3v-3h-1z" fill="currentColor" color="#5d656b"/></svg>

<svg xmlns="http://www.w3.org/2000/svg" viewBox="0 0 16 16">
  <defs id="defs3051">
    <style type="text/css" id="current-color-scheme">
      .ColorScheme-Text {
        color:#5d656b;
      }
      </style>
  </defs>
 <path style="fill:currentColor;fill-opacity:1;stroke:none" 
       d="M 2 2 L 2 3 L 2 5 L 3 5 L 3 3 L 5 3 L 5 2 L 3 2 L 2 2 z M 11 2 L 11 3 L 13 3 L 13 5 L 14 5 L 14 3 L 14 2 L 13 2 L 11 2 z M 4 4 L 4 12 L 7 12 L 7 4 L 4 4 z M 8 6 L 8 10 L 10 8 L 8 6 z M 11 6 L 11 10 L 13 10 L 13 6 L 11 6 z M 2 11 L 2 13 L 2 14 L 3 14 L 5 14 L 5 13 L 3 13 L 3 11 L 2 11 z M 13 11 L 13 13 L 11 13 L 11 14 L 13 14 L 14 14 L 14 13 L 14 11 L 13 11 z "
     class="ColorScheme-Text"
     />
</svg>
